X:1
T:Begin, my tongue, some heavenly theme
T:Begin, my tongue, some heavenly theme - Whetstone (Henry Searle)
C:Henry Searle
Z:p114, The Sacred
Z:Herald, ed. W. J. White,
Z:London: [c1820]
%%score [ 1 2 ( 3 4 ) 5 ]
L:1/8
M:2/2
K:D
V:1 treble nm="Soprano" snm="S."
V:2 treble nm="Alto" snm="A."
V:3 treble-8 transpose=-12 nm="Tenor" snm="T."
V:4 treble-8 transpose=-12 
V:5 bass nm="Bass" snm="B."
V:1
"^Maestoso" D2 | D4 (F2 A2) | d4 A4 | (B2 A2) (G2 F2) | (F2 !fermata!E2) z2 F2 | (G3 A/B/ A2) G2 | %6
w: Pro-|claim sal- *|va- tion|from _ the _|Lord _ For|wret- * * * ched|
w: Be-|gin, my _|tongue, some|heav’n- * ly _|theme, _ And|speak _ _ _ some|
w: Tell|of his _|wond- rous|faith- * ful- *|ness, _ And|sound _ _ _ his|
 F4 ^G4 | A6 A2 | d4 f4 | g6 f2 | (f2 e2) (e2 d2) | (d2 !fermata!c2) z2 A2 | d2 d2 d2 e2 | %13
w: dy- ing|men: His|hand has|writ the|sa- * cred _|word _ With|an im- mor- tal|
w: bound- less|thing; The|migh- ty|works, or|migh- * tier _|name _ Of|our e- ter- nal|
w: pow’r a-|broad; Sing|the sweet|pro- mise|of _ his _|grace, _ And|the per- for- ming|
 f4!p! d4 | c2 c2 d2 B2 | !fermata!A4 z2!f! A2 | (d4 cdef | e3 d c3 B | A4) (B2 cd) | F4 E4 | D8 |] %21
w: pen, with|an im- mor- tal|pen, with|an _ _ _ _|_ _ _ _|* im- * *|mor- tal|pen.|
w: king, of|our e- ter- nal|king, of|our _ _ _ _|_ _ _ _|* e- * *|ter- nal|king.|
w: God, and|the per- for- ming|God, and|the _ _ _ _|_ _ _ _|* per- * *|for- ming|God.|
V:2
 F2 | F4 (D2 F2) | F4 D4 | (G2 F2) (E2 D2) | (D2 !fermata!C2) z2 D2 | (E3 F/G/ F2) E2 | D4 D4 | %7
w: Pro-|claim sal- *|va- tion|from _ the _|Lord _ For|wret- * * * ched|dy- ing|
w: Be-|gin, my _|tongue, some|heav’n- * ly _|theme, _ And|speak _ _ _ some|bound- less|
w: Tell|of his _|wond- rous|faith- * ful- *|ness, _ And|sound _ _ _ his|pow’r a-|
 C6 z2 | z4 z2 A2 | A2 A2 A2 A2 | (A2 G2) (G2 F2) | (F2 !fermata!E2) z2 C2 | D2 F2 F2 C2 | %13
w: men:|His|hand has writ the|sa- * cred _|word _ With|an im- mor- tal|
w: thing;|The|migh- ty works, or|migh- * tier _|name _ Of|our e- ter- nal|
w: broad;|Sing|the sweet pro- mise|of _ his _|grace, _ And|the per- for- ming|
 D4!p! F4 | E2 E2 F2 D2 | !fermata!C4 z2!f! A2 | ^G4 (AFED) | E3 ^G A3 E | A4 (G2 AB) | A4 G4 | %20
w: pen, with|an im- mor- tal|pen, with|an im- * * *|mor- tal pen, with|an im- * *|mor- tal|
w: king, of|our e- ter- nal|king, of|our e- * * *|ter- nal king, of|our e- * *|ter- nal|
w: God, and|the per- for- ming|God, and|the per- * * *|for- ming God, and|the per- * *|for- ming|
 F8 |] %21
w: pen.|
w: king.|
w: God.|
V:3
 A2 | A4 (A2 d2) | d4 d4 | d4 (c2 B2) | !fermata!A4 z2 A2 | A6 c2 | d4 B4 | A6 z2 | z4 z2 d2 | %9
w: Pro-|claim sal- *|va- tion|from the _|Lord For|wret- ched|dy- ing|men:|His|
w: Be-|gin, my _|tongue, some|heav’n- ly _|theme, And|speak some|bound- less|thing;|The|
w: Tell|of his _|wond- rous|faith- ful- *|ness, And|sound his|pow’r a-|broad;|Sing|
 c2 c2 c2 d2 | B4 B4 | !fermata!A4 z2 e2 | A2 A2 A2 A2 | A4!p! A4 | A2 A2 A2 ^G2 | %15
w: hand has writ the|sa- cred|word With|an im- mor- tal|pen, with|an im- mor- tal|
w: migh- ty works, or|migh- tier|name Of|our e- ter- nal|king, of|our e- ter- nal|
w: the sweet pro- mise|of his|grace, And|the per- for- ming|God, and|the per- for- ming|
 !fermata!A4 z2!f! c2 | (d4 edcB | A3) e e3 e | d3 d d2 d2 | d4 c4 | d8 |] %21
w: pen, with|an _ _ _ _|_ im- mor- tal|pen, with an im-|mor- tal|pen.|
w: king, of|our _ _ _ _|_ e- ter- nal|king, of our e-|ter- nal|king.|
w: God, and|the _ _ _ _|_ per- for- ming|God, and the per-|for- ming|God.|
V:4
 x2 | x8 | x8 | x8 | x8 | x8 | x8 | x8 | x8 | x8 | x8 | x8 | x8 | x8 | x8 | x8 | x8 | x8 | %18
 x4 d2 (cB) | A4 A4 | A8 |] %21
V:5
 D,2 | D,4 D,4 | D,4 F,4 | G,6 ^G,2 | !fermata!A,4 z2 D,2 | C,6 A,,2 | D,4 E,4 | A,,6 D,2 | %8
w: Pro-|claim sal-|va- tion|from the|Lord For|wret- ched|dy- ing|men: His|
w: Be-|gin, my|tongue, some|heav’n- ly|theme, And|speak some|bound- less|thing; The|
w: Tell|of his|wond- rous|faith- ful-|ness, And|sound his|pow’r a-|broad; Sing|
 D,4 D,4 | E,6 F,2 | G,4 G,4 | !fermata!A,4 z2 A,2 | F,2 A,2 D2 A,2 | D,4!p! D,4 | %14
w: hand has|writ the|sa- cred|word With|an im- mor- tal|pen, with|
w: migh- ty|works, or|migh- tier|name Of|our e- ter- nal|king, of|
w: the sweet|pro- mise|of his|grace, And|the per- for- ming|God, and|
 A,2 A,2 D,2 E,2 | %15
w: an im- mor- tal|
w: our e- ter- nal|
w: the per- for- ming|
"^Notes:This tune is one of two items attributed to ‘H. Searle’ in W. J. White’s The Sacred Herald: the other, ‘Salvation’, is athrough-composed setting of ‘Salvation, O the joyful sound’.The order of staves in the original is Alto - Tenor - Air - [Bass], with the alto and tenor parts given an octaveabove sounding pitch. The Air and Bass staves are bracketed together and a keyboard accompaniment is indicatedbetween these parts with small notes: this keyboard accompaniment has been omitted from the present edition.In addition to the first verse of the text, which is given in the source, three further verses of the text have here beenunderlaid editorially.The following notes are printed in the source as small crotchet grace notes slurred to full-sized minims, and havehere been written out in full: bar 4, beat 1, soprano F# and alto D; bar 11, beat 1, soprano D and alto F#." !fermata!A,,4 z2!f! A,2 | %16
w: pen, with|
w: king, of|
w: God, and|
 (B,4 A,B,CD | C3 B, A,3 G, | F,4) G,4 | A,4 A,,4 | D,8 |] %21
w: an _ _ _ _|_ _ _ _|* im-|mor- tal|pen.|
w: our _ _ _ _|_ _ _ _|* e-|ter- nal|king.|
w: the _ _ _ _|_ _ _ _|* per-|for- ming|God.|

